usr/share/icons/biglinux-icons-material/24/actions/widget-alternatives.svg

<svg version="1.1" viewBox="0 0 24 24" xmlns="http://www.w3.org/2000/svg">
    <style
        type="text/css"
        id="current-color-scheme">
        .ColorScheme-Text {
            color:#dedede;
        }
    </style><g transform="translate(1,1)">
    <path class="ColorScheme-Text" d="m14 4v4h5v-4h-5zm1 1h3v2h-3v-2zm-6.707 1-3.5 3.5 3.5 3.5 0.70703-0.70703-2.293-2.293h5.293v-1h-5.293l2.293-2.293-0.70703-0.70703zm5.4141 3-0.70703 0.70703 2.293 2.293h-5.293v1h5.293l-2.293 2.293 0.70703 0.70703 3.5-3.5-3.5-3.5zm-10.707 5v4h5v-4h-5zm1 1h3v2h-3v-2z" fill="currentColor"/>
</g></svg>

<svg xmlns="http://www.w3.org/2000/svg" viewBox="0 0 24 24"><path fill="currentColor" d="M14 4v4h5V4h-5zm1 1h3v2h-3V5zM8.293 6l-3.5 3.5 3.5 3.5.707-.707L6.707 10H12V9H6.707L9 6.707 8.293 6zm5.414 3L13 9.707 15.293 12H10v1h5.293L13 15.293l.707.707 3.5-3.5-3.5-3.5zM3 14v4h5v-4H3zm1 1h3v2H4v-2z" style="color:#dedede" transform="translate(1 1)"/></svg>
